X:5519
T:French Air. GS.005
M:6/8
L:1/8
Q:120
S:George Spencer m/s, Leeds,1831
R:Jig
O:England
A:Leeds
H:1831
Z:vmp.Cherri Graebe
K:C major
G | Gec BAB | cec G2 G | AGF fed | (c3 B2) G | Gec BAB | cec G2G |!
 dcB AGA | (G3 G2) G | ddd dBG | eee ecG | feB cge | (e3 d2) G |!
 (d3 d)BG | (e3 e)cA | fdB cge | "pause"d2 G e2 B |
 c2 c d2 e | {g} fed A2A |!
 f2e dcd | c2G d2 B | c2cd2e | fed A2A | f2e dcd | c3 z2 ||
